src/pos-icons/close-outline.svg

<svg height="24" viewBox="0 0 24 24" width="24" xmlns="http://www.w3.org/2000/svg"><path d="m3 16.74 4.76-4.74-4.76-4.74 4.26-4.26 4.74 4.76 4.74-4.76 4.26 4.26-4.76 4.74 4.76 4.74-4.26 4.26-4.74-4.76-4.74 4.76zm9-3.33 4.74 4.75 1.42-1.42-4.75-4.74 4.75-4.74-1.42-1.42-4.74 4.75-4.74-4.75-1.42 1.42 4.75 4.74-4.75 4.74 1.42 1.42z"/></svg>

<?xml version="1.0" encoding="UTF-8"?><!DOCTYPE svg PUBLIC "-//W3C//DTD SVG 1.1//EN" "http://www.w3.org/Graphics/SVG/1.1/DTD/svg11.dtd"><svg xmlns="http://www.w3.org/2000/svg" xmlns:xlink="http://www.w3.org/1999/xlink" version="1.1" id="mdi-close-outline" width="24" height="24" viewBox="0 0 24 24"><path d="M3,16.74L7.76,12L3,7.26L7.26,3L12,7.76L16.74,3L21,7.26L16.24,12L21,16.74L16.74,21L12,16.24L7.26,21L3,16.74M12,13.41L16.74,18.16L18.16,16.74L13.41,12L18.16,7.26L16.74,5.84L12,10.59L7.26,5.84L5.84,7.26L10.59,12L5.84,16.74L7.26,18.16L12,13.41Z" /></svg>
